X:64
T:Wonder THO4.064, The
M:2/4
L:1/8
Z:vmp. Peter Dunk 2010/11.from a transcription by Fynn Titford-Mock 2007
B:Thompson's Compleat Collection of 200 Favourite Country Dances Volume IV.
Q:1/4=110
K:A
Ac {c}B2|Ac {c}B2|ce e/d/c/e/|c/e/a/c/ {c}B2|\
Ac {c}B2|Ac {c}B2|ce e/d/c/e/|c/e/a/c/ {c}B2:|
|:df e/a/Ta|df e/a/Ta|Bd/B/ ce/c/|Ac/A/ BE|\
df e/a/Ta|df e/a/Ta|Bd/B/ ce/c/|d/B/A/G/ A2:|
